X:1
T:Shillingstone, 10.10.10.10
T:Shillingstone, 10.10.10.10
T:Samuel Sebastian Wesley, 1872
T:Public Domain Courtesy of the Cyber Hymnal™
C:Samuel Sebastian Wesley, 1872
Z:Public Domain
Z:Courtesy of the Cyber Hymnal™
%%score 1 ( 2 3 ) ( 4 5 ) ( 6 7 )
L:1/8
Q:1/2=107
M:3/2
K:F
V:1 treble 
V:2 treble 
V:3 treble 
V:4 treble-8 
V:5 treble-8 
V:6 bass 
V:7 bass 
V:1
 F4 F4 E4 | F8 z4 | F6 E2 D2 G2 | F4 E4 z4 | E4 D4 G4 | E12 | E6 E2 E2 E2 | F4 F4 z4 | D4 D4 E4 | %9
 F12 | D6 E2 F2 G2 | C4 E8 | F4 F4 F4 | F12 | F4 F4 F2 F2 | F8 z4 |] %16
V:2
 c4 c4 c4 | c8 z4 | F6 A2 d2 d2 | A4 A4 z4 | A4 A4 d4 | ^c12 | c6 c2 c2 c2 | c4 c4 z4 | %8
 B4 B4 (B2 c2) | c12 | B6 A2 A2 G2 | F4 c8 | A4 A4 B4 | c12 | d4 c4 d2 d2 | d4 c4 z4 |] %16
V:3
 x12 | x12 | x12 | x12 | x12 | ^c12 | x12 | x12 | x12 | x12 | x12 | x12 | x12 | x12 | x12 | x12 |] %16
V:4
 [FA]4 [FA]4 [EG]4 | F8 z4 | [FB]6 [EA]2 [DG]2 [DGd]2 | [Fd]4 [E^c]4 z4 | [E^c]4 [Dd]4 [GB]4 | %5
 [EA]12 | [EG]6 [EG]2 [Ec]2 d2 | [Fd]4 [Fc]4 z4 | [DF]4 [DF]4 [EG]4 | [FA]12 | %10
 [Dd]6 [Ec]2 [Fc]2 [GB]2 | [Cc]4 [EG]8 | [Ff]4 [Fe]4 [Fd]4 | [Fc]12 | F4 F4 F2 [FB]2 | %15
 [FB]4 [FA]4 z4 |] %16
V:5
 x12 | F8 x4 | x12 | x12 | x12 | x12 | x12 | x12 | x12 | x12 | x12 | x12 | x12 | x12 | %14
 F4 F4 F2 x2 | x12 |] %16
V:6
 [F,C]4 [F,C]4 [C,C]4 | [A,,C]8 z4 | [D,F,]6 [C,A,]2 B,,2 B,,2 | [A,,A,]4 [A,,A,]4 z4 | %4
 A,4 [^F,A,]4 [G,D]4 | [A,^C]12 | [B,C]6 [B,C]2 [B,C]2 [B,C]2 | [A,C]4 [A,C]4 z4 | %8
 [B,,B,]4 [A,,B,]4 (B,2 C2) | [F,,C]12 | [B,,B,]6 [C,A,]2 [D,A,]2 [E,G,]2 | F,4 [C,C]8 | %12
 [D,A,]4 [C,A,]4 [B,,B,]4 | [A,,C]12 | [B,,D]4 [A,,C]4 [B,,D]2 [B,,D]2 | [F,,F,D]4 [F,,F,C]4 z4 |] %16
V:7
 x12 | x12 | x12 | x12 | A,4 x8 | x12 | x12 | x12 | x8 G,,4 | x12 | x12 | F,4 x8 | x12 | x12 | %14
 x12 | x12 |] %16

